X:467
T:Troy's Wedding
R:jig
C:Colin Magee
D:Battlefield Band
D:Nomos
D:Capercaillie
Z:hn-jig-467
M:6/8
L:1/8
K:D
~A3 d2c | ~B3 e2d | cAA ABc | dcd f2d |
~A3 d2c | ~B3 e2d | caa gee |1 ABc dcB :|2 ABc def ||
|: gee ege | fdd dfd | ecA ABc | dcd f2d |
[1 gee ege | fdB A2d | caa gee | ABc d3 :|
[2 BGG Bcd | Add f2d | caa gee | ABc d3 ||
|: Aaa Bac | aad aea | faa gec | dcd f2d |
Aaa Bac | aad aea | faa gee | ABc d3 :|
Acc cee | Add dff | ecA ABc | dcd f2d |
~A3 cAA | dAd fed | caa gee | ABc d3 |
AcA ecA | AdA fdA | ecA ABc | dcd f2d |
BGG Bcd | Add f2d | caa gee | ABc d3 ||

